apps/site/public/icons/companies/feather_light.svg

<svg viewBox="0 0 408 96" fill="none" xmlns="http://www.w3.org/2000/svg"><path d="M44.6141 72.7277C36.9117 74.4377 30.4918 75.4522 26.9486 78.423C23.4053 81.3938 22.246 84.0241 20.5432 87.7774C20.2678 88.3789 20.0577 88.618 19.594 88.618H16.7391C16.3116 88.618 16.0072 88.2919 16 87.9006C16.3768 80.7707 24.0864 57.3736 36.1581 41.3167C48.2298 25.2526 56.2003 17.7675 73.2354 6.86969C73.4238 7.2972 73.8296 8.29713 73.9165 8.50002C77.6192 17.3183 78.4887 27.8828 74.7933 36.8532C71.2935 45.3527 64.0186 50.5987 55.2655 52.7218C53.3454 53.1855 51.3962 53.5333 49.4326 53.8087C49.0775 53.8594 48.8095 54.1637 48.8095 54.5187V57.0041C48.8095 57.3591 49.0558 57.6562 49.4036 57.7214C51.1136 58.033 53.4251 58.1562 56.8814 57.8229C60.1565 57.5113 63.1491 56.8447 65.12 55.91C65.12 55.91 66.475 68.17 44.6141 72.7205V72.7277Z" fill="#3F3F47"/><path d="M111.392 40.0409H102.354V32.6012H111.392V26.0437C111.392 18.6981 115.874 14.6638 123.581 14.6638H131.838V21.9226H125.729C121.875 21.9226 120.53 23.6217 120.53 26.9402V32.6012H131.028V40.0409H120.53V80.0152H111.384V40.0409H111.392Z" fill="#3F3F47"/><path d="M134.339 56.5312C134.339 41.4712 142.495 31.8843 156.116 31.8843C171.082 31.8843 178.254 42.7292 177.09 58.1435H143.391C143.478 68.5401 148.589 73.7385 156.39 73.7385C162.572 73.7385 166.52 70.7814 167.864 66.2121H176.649C175.217 75.358 167.055 80.8238 156.39 80.8238C142.408 80.8238 134.339 71.2297 134.339 56.5312ZM143.485 51.8751H168.045C167.778 42.91 162.934 38.9697 156.123 38.9697C148.864 38.9697 144.201 43.4522 143.485 51.8751Z" fill="#3F3F47"/><path d="M183.38 67.3831C183.38 57.9697 190.906 52.5039 203.009 52.5039H213.854V47.9345C213.854 41.7529 210.268 39.0634 204.173 39.0634C198.078 39.0634 194.044 42.1072 193.863 46.6838H184.812C184.992 37.7186 192.88 31.7178 204.708 31.7178C216.537 31.7178 223.08 37.7259 223.08 48.296V68.6411C223.08 71.8657 224.157 73.1237 226.398 73.1237H228.726V80.0283H223.528C218.33 80.0283 215.553 77.6062 214.743 72.9501H214.382C211.873 77.7002 205.684 80.744 198.787 80.744C189.554 80.744 183.373 75.4589 183.373 67.3903L183.38 67.3831ZM213.854 65.684V58.418H204.622C196.914 58.418 192.793 61.4618 192.793 66.7541C192.793 71.3234 196.285 74.1937 201.845 74.1937C207.759 74.1937 212.329 70.7016 213.854 65.684Z" fill="#3F3F47"/><path d="M237.807 69.1703V40.1277H228.842V32.6013H237.807V16.7966L246.946 15.7194V32.6013H257.523V40.1277H247.039V67.6448C247.039 70.9634 248.652 72.3081 251.703 72.3081H257.617V80.0153H248.565C241.393 80.0153 237.807 76.7907 237.807 69.1703Z" fill="#3F3F47"/><path d="M274.629 14.6777V41.3056H275.164C277.94 34.5818 284.216 31.885 291.207 31.885C300.888 31.885 308.147 37.3508 308.147 51.8758V80.022H298.915V53.7628C298.915 44.0819 295.422 39.5126 287.889 39.5126C279.733 39.5126 274.622 46.6775 274.622 54.8328V80.022H265.483V14.6777H274.629Z" fill="#3F3F47"/><path d="M315.232 56.5312C315.232 41.4712 323.388 31.8843 337.016 31.8843C351.982 31.8843 359.154 42.7292 357.99 58.1435H324.292C324.378 68.5401 329.49 73.7385 337.291 73.7385C343.473 73.7385 347.42 70.7814 348.765 66.2121H357.549C356.118 75.358 347.962 80.8238 337.291 80.8238C323.308 80.8238 315.24 71.2297 315.24 56.5312H315.232ZM324.371 51.8751H348.931C348.664 42.91 343.82 38.9697 337.009 38.9697C329.75 38.9697 325.087 43.4522 324.371 51.8751Z" fill="#3F3F47"/><path d="M366.363 32.5993H374.612L375.06 41.0222H375.508C377.569 34.9273 382.948 31.9703 389.224 31.9703C390.301 31.9703 391.197 32.057 392 32.151V40.8486C391.284 40.7619 390.207 40.7619 389.13 40.7619C380.707 40.7619 375.957 45.1505 375.508 52.9516V80.0205H366.37V32.5993H366.363Z" fill="#3F3F47"/></svg>

<svg xmlns="http://www.w3.org/2000/svg" fill="none" viewBox="0 0 408 96"><path fill="#3f3f47" d="M44.614 72.728c-7.702 1.71-14.122 2.724-17.665 5.695-3.544 2.97-4.703 5.601-6.406 9.354-.275.602-.485.841-.949.841h-2.855a.724.724 0 0 1-.739-.717c.377-7.13 8.086-30.527 20.158-46.584C48.23 25.253 56.2 17.767 73.235 6.87c.189.427.595 1.427.681 1.63 3.703 8.818 4.573 19.383.877 28.353-3.5 8.5-10.774 13.746-19.528 15.869-1.92.463-3.869.811-5.832 1.087a.724.724 0 0 0-.623.71v2.485c0 .355.246.652.594.717 1.71.312 4.021.435 7.477.102 3.276-.312 6.268-.978 8.239-1.913 0 0 1.355 12.26-20.506 16.81zm66.778-32.688h-9.038v-7.439h9.038v-6.557c0-7.346 4.482-11.38 12.189-11.38h8.257v7.259h-6.109c-3.854 0-5.199 1.699-5.199 5.017v5.661h10.498v7.44H120.53v39.974h-9.146V40.041zm22.947 16.491c0-15.06 8.156-24.647 21.777-24.647 14.966 0 22.138 10.845 20.974 26.26h-33.699c.087 10.396 5.198 15.595 12.999 15.595 6.182 0 10.13-2.958 11.474-7.527h8.785c-1.432 9.146-9.594 14.612-20.259 14.612-13.982 0-22.051-9.594-22.051-24.293m9.146-4.656h24.56c-.267-8.965-5.111-12.905-11.922-12.905-7.259 0-11.922 4.482-12.638 12.905m39.895 15.508c0-9.413 7.526-14.88 19.629-14.88h10.845v-4.568c0-6.182-3.586-8.872-9.681-8.872s-10.129 3.044-10.31 7.62h-9.051c.18-8.964 8.068-14.965 19.896-14.965s18.372 6.008 18.372 16.578v20.345c0 3.225 1.077 4.483 3.318 4.483h2.328v6.904h-5.198c-5.198 0-7.975-2.422-8.785-7.078h-.361c-2.509 4.75-8.698 7.794-15.595 7.794-9.233 0-15.414-5.285-15.414-13.354zm30.474-1.699v-7.266h-9.232c-7.708 0-11.829 3.044-11.829 8.336 0 4.57 3.492 7.44 9.052 7.44 5.914 0 10.484-3.492 12.009-8.51m23.953 3.486V40.128h-8.965V32.6h8.965V16.797l9.139-1.078v16.882h10.577v7.527h-10.484v27.517c0 3.318 1.613 4.663 4.664 4.663h5.914v7.707h-9.052c-7.172 0-10.758-3.224-10.758-10.845m36.822-54.492v26.628h.535c2.776-6.724 9.052-9.421 16.043-9.421 9.681 0 16.94 5.466 16.94 19.99v28.147h-9.232v-26.26c0-9.68-3.493-14.25-11.026-14.25-8.156 0-13.267 7.166-13.267 15.32v25.19h-9.139V14.678zm40.603 41.853c0-15.06 8.156-24.647 21.784-24.647 14.966 0 22.138 10.845 20.974 26.26h-33.698c.086 10.396 5.198 15.595 12.999 15.595 6.182 0 10.129-2.958 11.474-7.527h8.784c-1.431 9.146-9.587 14.612-20.258 14.612-13.983 0-22.051-9.594-22.051-24.293zm9.139-4.656h24.56c-.267-8.965-5.111-12.905-11.922-12.905-7.259 0-11.922 4.482-12.638 12.905M366.363 32.6h8.249l.448 8.422h.448c2.061-6.095 7.44-9.052 13.716-9.052 1.077 0 1.973.087 2.776.181v8.698c-.716-.087-1.793-.087-2.87-.087-8.423 0-13.173 4.389-13.622 12.19V80.02h-9.138V32.599z"/></svg>
